static/Icons/crown.svg

<svg width="24" height="24" viewBox="0 0 24 24" fill="none" xmlns="http://www.w3.org/2000/svg">
<path opacity="0.4" d="M16.7702 18.98H7.23024C6.81024 18.98 6.43024 18.71 6.29024 18.32L2.13024 6.67004C1.80024 5.74004 2.86024 4.95004 3.65024 5.52004L7.65024 8.38004C8.18024 8.76004 8.94024 8.53004 9.17024 7.92004L11.0602 2.88004C11.3802 2.01004 12.6102 2.01004 12.9302 2.88004L14.8202 7.92004C15.0502 8.54004 15.8002 8.76004 16.3402 8.38004L20.3402 5.52004C21.1402 4.95004 22.1902 5.75004 21.8602 6.67004L17.7002 18.32C17.5702 18.71 17.1902 18.98 16.7702 18.98Z" fill="#292D32"/>
<path d="M17 22H7C6.59 22 6.25 21.66 6.25 21.25C6.25 20.84 6.59 20.5 7 20.5H17C17.41 20.5 17.75 20.84 17.75 21.25C17.75 21.66 17.41 22 17 22Z" fill="#292D32"/>
<path d="M14.5 14.75H9.5C9.09 14.75 8.75 14.41 8.75 14C8.75 13.59 9.09 13.25 9.5 13.25H14.5C14.91 13.25 15.25 13.59 15.25 14C15.25 14.41 14.91 14.75 14.5 14.75Z" fill="#292D32"/>
</svg>

<svg fill="none" height="24" viewBox="0 0 24 24" width="24" xmlns="http://www.w3.org/2000/svg"><g fill="#292d32"><path d="m16.7702 18.98h-9.53996c-.42 0-.8-.27-.94-.66l-4.16-11.64996c-.33-.93.73-1.72 1.52-1.15l4 2.86c.53.38 1.29.15 1.52-.46l1.88996-5.04c.32-.87 1.55-.87 1.87 0l1.89 5.04c.23.62.98.84 1.52.46l4-2.86c.8-.57 1.85.23 1.52 1.15l-4.16 11.64996c-.13.39-.51.66-.93.66z" opacity=".4"/><path d="m17 22h-10c-.41 0-.75-.34-.75-.75s.34-.75.75-.75h10c.41 0 .75.34.75.75s-.34.75-.75.75z"/><path d="m14.5 14.75h-5c-.41 0-.75-.34-.75-.75s.34-.75.75-.75h5c.41 0 .75.34.75.75s-.34.75-.75.75z"/></g></svg>
